images/software/categorydata.svg

<?xml version="1.0" encoding="UTF-8"?>
<svg xmlns="http://www.w3.org/2000/svg" xmlns:xlink="http://www.w3.org/1999/xlink" width="267pt" height="395pt" viewBox="0 0 267 395" version="1.1">
<g id="surface25244">
<path style="fill:none;stroke-width:10;stroke-linecap:butt;stroke-linejoin:round;stroke:rgb(0%,0%,0%);stroke-opacity:1;stroke-miterlimit:10;" d="M 256 768 L 256 704 L 128 576 L 256 448 L 384 576 L 256 704 L 192 640 L 320 512 L 256 448 L 256 384 " transform="matrix(1,0,0,-1,-123,773)"/>
<path style="fill-rule:evenodd;fill:rgb(100%,100%,100%);fill-opacity:1;stroke-width:0.4;stroke-linecap:butt;stroke-linejoin:round;stroke:rgb(100%,100%,100%);stroke-opacity:1;stroke-miterlimit:10;" d="M 272 704 C 272 712.835938 264.835938 720 256 720 C 247.164062 720 240 712.835938 240 704 C 240 695.164062 247.164062 688 256 688 C 264.835938 688 272 695.164062 272 704 Z M 272 704 " transform="matrix(1,0,0,-1,-123,773)"/>
<path style="fill-rule:evenodd;fill:rgb(100%,100%,100%);fill-opacity:1;stroke-width:0.4;stroke-linecap:butt;stroke-linejoin:round;stroke:rgb(100%,100%,100%);stroke-opacity:1;stroke-miterlimit:10;" d="M 208 640 C 208 648.835938 200.835938 656 192 656 C 183.164062 656 176 648.835938 176 640 C 176 631.164062 183.164062 624 192 624 C 200.835938 624 208 631.164062 208 640 Z M 208 640 " transform="matrix(1,0,0,-1,-123,773)"/>
<path style="fill-rule:evenodd;fill:rgb(100%,100%,100%);fill-opacity:1;stroke-width:0.4;stroke-linecap:butt;stroke-linejoin:round;stroke:rgb(100%,100%,100%);stroke-opacity:1;stroke-miterlimit:10;" d="M 336 512 C 336 520.835938 328.835938 528 320 528 C 311.164062 528 304 520.835938 304 512 C 304 503.164062 311.164062 496 320 496 C 328.835938 496 336 503.164062 336 512 Z M 336 512 " transform="matrix(1,0,0,-1,-123,773)"/>
<path style="fill-rule:evenodd;fill:rgb(100%,100%,100%);fill-opacity:1;stroke-width:0.4;stroke-linecap:butt;stroke-linejoin:round;stroke:rgb(100%,100%,100%);stroke-opacity:1;stroke-miterlimit:10;" d="M 272 448 C 272 456.835938 264.835938 464 256 464 C 247.164062 464 240 456.835938 240 448 C 240 439.164062 247.164062 432 256 432 C 264.835938 432 272 439.164062 272 448 Z M 272 448 " transform="matrix(1,0,0,-1,-123,773)"/>
<path style="fill-rule:evenodd;fill:rgb(79.6%,23.5%,20%);fill-opacity:0.75;stroke-width:0.4;stroke-linecap:butt;stroke-linejoin:round;stroke:rgb(79.6%,23.5%,20%);stroke-opacity:0.75;stroke-miterlimit:10;" d="M 272 704 C 272 712.835938 264.835938 720 256 720 C 247.164062 720 240 712.835938 240 704 C 240 695.164062 247.164062 688 256 688 C 264.835938 688 272 695.164062 272 704 Z M 272 704 " transform="matrix(1,0,0,-1,-123,773)"/>
<path style="fill-rule:evenodd;fill:rgb(22%,59.6%,14.9%);fill-opacity:0.75;stroke-width:0.4;stroke-linecap:butt;stroke-linejoin:round;stroke:rgb(22%,59.6%,14.9%);stroke-opacity:0.75;stroke-miterlimit:10;" d="M 208 640 C 208 648.835938 200.835938 656 192 656 C 183.164062 656 176 648.835938 176 640 C 176 631.164062 183.164062 624 192 624 C 200.835938 624 208 631.164062 208 640 Z M 208 640 " transform="matrix(1,0,0,-1,-123,773)"/>
<path style="fill-rule:evenodd;fill:rgb(58.4%,34.5%,69.8%);fill-opacity:0.75;stroke-width:0.4;stroke-linecap:butt;stroke-linejoin:round;stroke:rgb(58.4%,34.5%,69.8%);stroke-opacity:0.75;stroke-miterlimit:10;" d="M 336 512 C 336 520.835938 328.835938 528 320 528 C 311.164062 528 304 520.835938 304 512 C 304 503.164062 311.164062 496 320 496 C 328.835938 496 336 503.164062 336 512 Z M 336 512 " transform="matrix(1,0,0,-1,-123,773)"/>
<path style="fill-rule:evenodd;fill:rgb(25.1%,38.8%,84.7%);fill-opacity:0.75;stroke-width:0.4;stroke-linecap:butt;stroke-linejoin:round;stroke:rgb(25.1%,38.8%,84.7%);stroke-opacity:0.75;stroke-miterlimit:10;" d="M 272 448 C 272 456.835938 264.835938 464 256 464 C 247.164062 464 240 456.835938 240 448 C 240 439.164062 247.164062 432 256 432 C 264.835938 432 272 439.164062 272 448 Z M 272 448 " transform="matrix(1,0,0,-1,-123,773)"/>
</g>
</svg>

<?xml version="1.0" encoding="UTF-8" standalone="no"?>
<!-- Created with Inkscape (http://www.inkscape.org/) -->

<svg
   width="406"
   height="375"
   viewBox="0 0 107.42083 99.218753"
   version="1.1"
   id="svg62"
   inkscape:version="1.1.2 (0a00cf5339, 2022-02-04)"
   sodipodi:docname="categorydata.svg"
   xmlns:inkscape="http://www.inkscape.org/namespaces/inkscape"
   xmlns:sodipodi="http://sodipodi.sourceforge.net/DTD/sodipodi-0.dtd"
   xmlns="http://www.w3.org/2000/svg"
   xmlns:svg="http://www.w3.org/2000/svg">
  <sodipodi:namedview
     id="namedview64"
     pagecolor="#ffffff"
     bordercolor="#666666"
     borderopacity="1.0"
     inkscape:pageshadow="2"
     inkscape:pageopacity="0.0"
     inkscape:pagecheckerboard="0"
     inkscape:document-units="mm"
     showgrid="false"
     units="px"
     inkscape:zoom="18.274592"
     inkscape:cx="195.24376"
     inkscape:cy="18.222021"
     inkscape:window-width="1920"
     inkscape:window-height="996"
     inkscape:window-x="0"
     inkscape:window-y="29"
     inkscape:window-maximized="1"
     inkscape:current-layer="layer1" />
  <defs
     id="defs59" />
  <g
     inkscape:label="Layer 1"
     inkscape:groupmode="layer"
     id="layer1">
    <g
       id="surface25244"
       transform="matrix(0.24859629,0,0,0.24859629,20.64711,0.63590587)">
      <path
         style="fill:none;stroke:#000000;stroke-width:10;stroke-linecap:butt;stroke-linejoin:round;stroke-miterlimit:10;stroke-opacity:1"
         d="M 256,768 V 704 L 128,576 256,448 384,576 256,704 192,640 320,512 256,448 v -64"
         transform="matrix(1,0,0,-1,-123,773)"
         id="path2" />
      <path
         style="fill:#ffffff;fill-opacity:1;fill-rule:evenodd;stroke:#ffffff;stroke-width:0.4;stroke-linecap:butt;stroke-linejoin:round;stroke-miterlimit:10;stroke-opacity:1"
         d="m 272,704 c 0,8.83594 -7.16406,16 -16,16 -8.83594,0 -16,-7.16406 -16,-16 0,-8.83594 7.16406,-16 16,-16 8.83594,0 16,7.16406 16,16 z m 0,0"
         transform="matrix(1,0,0,-1,-123,773)"
         id="path4" />
      <path
         style="fill:#ffffff;fill-opacity:1;fill-rule:evenodd;stroke:#ffffff;stroke-width:0.4;stroke-linecap:butt;stroke-linejoin:round;stroke-miterlimit:10;stroke-opacity:1"
         d="m 208,640 c 0,8.83594 -7.16406,16 -16,16 -8.83594,0 -16,-7.16406 -16,-16 0,-8.83594 7.16406,-16 16,-16 8.83594,0 16,7.16406 16,16 z m 0,0"
         transform="matrix(1,0,0,-1,-123,773)"
         id="path6" />
      <path
         style="fill:#ffffff;fill-opacity:1;fill-rule:evenodd;stroke:#ffffff;stroke-width:0.4;stroke-linecap:butt;stroke-linejoin:round;stroke-miterlimit:10;stroke-opacity:1"
         d="m 336,512 c 0,8.83594 -7.16406,16 -16,16 -8.83594,0 -16,-7.16406 -16,-16 0,-8.83594 7.16406,-16 16,-16 8.83594,0 16,7.16406 16,16 z m 0,0"
         transform="matrix(1,0,0,-1,-123,773)"
         id="path8" />
      <path
         style="fill:#ffffff;fill-opacity:1;fill-rule:evenodd;stroke:#ffffff;stroke-width:0.4;stroke-linecap:butt;stroke-linejoin:round;stroke-miterlimit:10;stroke-opacity:1"
         d="m 272,448 c 0,8.83594 -7.16406,16 -16,16 -8.83594,0 -16,-7.16406 -16,-16 0,-8.83594 7.16406,-16 16,-16 8.83594,0 16,7.16406 16,16 z m 0,0"
         transform="matrix(1,0,0,-1,-123,773)"
         id="path10" />
      <path
         style="fill:#ca3a33;fill-opacity:0.75;fill-rule:evenodd;stroke:#ca3a33;stroke-width:0.4;stroke-linecap:butt;stroke-linejoin:round;stroke-miterlimit:10;stroke-opacity:0.75"
         d="m 272,704 c 0,8.83594 -7.16406,16 -16,16 -8.83594,0 -16,-7.16406 -16,-16 0,-8.83594 7.16406,-16 16,-16 8.83594,0 16,7.16406 16,16 z m 0,0"
         transform="matrix(1,0,0,-1,-123,773)"
         id="path12" />
      <path
         style="fill:#389723;fill-opacity:0.75;fill-rule:evenodd;stroke:#389723;stroke-width:0.4;stroke-linecap:butt;stroke-linejoin:round;stroke-miterlimit:10;stroke-opacity:0.75"
         d="m 208,640 c 0,8.83594 -7.16406,16 -16,16 -8.83594,0 -16,-7.16406 -16,-16 0,-8.83594 7.16406,-16 16,-16 8.83594,0 16,7.16406 16,16 z m 0,0"
         transform="matrix(1,0,0,-1,-123,773)"
         id="path14" />
      <path
         style="fill:#9457b0;fill-opacity:0.75;fill-rule:evenodd;stroke:#9457b0;stroke-width:0.4;stroke-linecap:butt;stroke-linejoin:round;stroke-miterlimit:10;stroke-opacity:0.75"
         d="m 336,512 c 0,8.83594 -7.16406,16 -16,16 -8.83594,0 -16,-7.16406 -16,-16 0,-8.83594 7.16406,-16 16,-16 8.83594,0 16,7.16406 16,16 z m 0,0"
         transform="matrix(1,0,0,-1,-123,773)"
         id="path16" />
      <path
         style="fill:#3f61d7;fill-opacity:0.75;fill-rule:evenodd;stroke:#3f61d7;stroke-width:0.4;stroke-linecap:butt;stroke-linejoin:round;stroke-miterlimit:10;stroke-opacity:0.75"
         d="m 272,448 c 0,8.83594 -7.16406,16 -16,16 -8.83594,0 -16,-7.16406 -16,-16 0,-8.83594 7.16406,-16 16,-16 8.83594,0 16,7.16406 16,16 z m 0,0"
         transform="matrix(1,0,0,-1,-123,773)"
         id="path18" />
    </g>
  </g>
</svg>
